SVG_Azure_All/Cognitive Services Bot Profile.svg

<?xml version="1.0" encoding="UTF-8" standalone="no"?>
<!-- Generated by Microsoft Visio, SVG Export Cognitive Services Bot Profile.svg Page-1 -->

<svg
   xmlns:dc="http://purl.org/dc/elements/1.1/"
   xmlns:cc="http://creativecommons.org/ns#"
   xmlns:rdf="http://www.w3.org/1999/02/22-rdf-syntax-ns#"
   xmlns:svg="http://www.w3.org/2000/svg"
   xmlns="http://www.w3.org/2000/svg"
   xmlns:sodipodi="http://sodipodi.sourceforge.net/DTD/sodipodi-0.dtd"
   xmlns:inkscape="http://www.inkscape.org/namespaces/inkscape"
   width="0.70896912in"
   height="0.78742212in"
   viewBox="0 0 51.045794 56.694703"
   xml:space="preserve"
   class="st8"
   version="1.1"
   id="svg80"
   sodipodi:docname="Cognitive Services Bot Profile.svg"
   style="font-size:12px;overflow:visible;color-interpolation-filters:sRGB;fill:none;fill-rule:evenodd;stroke-linecap:square;stroke-miterlimit:3"
   inkscape:version="0.92.5 (2060ec1f9f, 2020-04-08)"><metadata
   id="metadata84"><rdf:RDF><cc:Work
       rdf:about=""><dc:format>image/svg+xml</dc:format><dc:type
         rdf:resource="http://purl.org/dc/dcmitype/StillImage" /></cc:Work></rdf:RDF></metadata><sodipodi:namedview
   pagecolor="#ffffff"
   bordercolor="#666666"
   borderopacity="1"
   objecttolerance="10"
   gridtolerance="10"
   guidetolerance="10"
   inkscape:pageopacity="0"
   inkscape:pageshadow="2"
   inkscape:window-width="640"
   inkscape:window-height="480"
   id="namedview82"
   showgrid="false"
   inkscape:zoom="1.4193119"
   inkscape:cx="34.032126"
   inkscape:cy="37.786193"
   inkscape:window-x="0"
   inkscape:window-y="0"
   inkscape:window-maximized="0"
   inkscape:current-layer="svg80" />
	<style
   type="text/css"
   id="style2">
	<![CDATA[
		.st1 {fill:url(#grad0-6);stroke:none;stroke-linecap:butt;stroke-width:34}
		.st2 {fill:#ffffff;fill-opacity:0.8;stroke:none;stroke-linecap:butt;stroke-width:34}
		.st3 {fill:url(#grad0-12);stroke:none;stroke-linecap:butt;stroke-width:34}
		.st4 {fill:url(#grad0-16);stroke:none;stroke-linecap:butt;stroke-width:34}
		.st5 {fill:#0078d4;stroke:none;stroke-linecap:butt;stroke-width:34}
		.st6 {fill:#f2f2f2;stroke:none;stroke-linecap:butt;stroke-width:34}
		.st7 {fill:#5ea0ef;stroke:none;stroke-linecap:butt;stroke-width:34}
		.st8 {fill:none;fill-rule:evenodd;font-size:12px;overflow:visible;stroke-linecap:square;stroke-miterlimit:3}
	]]>
	</style>

	<defs
   id="Patterns_And_Gradients">
		<linearGradient
   id="grad0-6"
   x1="-0.018507997"
   y1="120.96239"
   x2="39.619897"
   y2="120.96239"
   gradientTransform="scale(1.2877929,0.77652238)"
   gradientUnits="userSpaceOnUse">
			<stop
   offset="0.22"
   stop-color="#32d4f5"
   stop-opacity="1"
   id="stop4" />
			<stop
   offset="0.47"
   stop-color="#31d1f3"
   stop-opacity="1"
   id="stop6" />
			<stop
   offset="1"
   stop-color="#198ab3"
   stop-opacity="1"
   id="stop8" />
		</linearGradient>
		<linearGradient
   id="grad0-12"
   x1="0"
   y1="96.244529"
   x2="28.57119"
   y2="96.244529"
   gradientTransform="scale(1.0008614,0.99913936)"
   gradientUnits="userSpaceOnUse">
			<stop
   offset="0.22"
   stop-color="#32d4f5"
   stop-opacity="1"
   id="stop11" />
			<stop
   offset="0.47"
   stop-color="#31d1f3"
   stop-opacity="1"
   id="stop13" />
			<stop
   offset="1"
   stop-color="#198ab3"
   stop-opacity="1"
   id="stop15" />
		</linearGradient>
		<linearGradient
   id="grad0-16"
   x1="0"
   y1="56.146992"
   x2="12.501483"
   y2="56.146992"
   gradientTransform="scale(0.55047149,1.8166245)"
   gradientUnits="userSpaceOnUse">
			<stop
   offset="0.22"
   stop-color="#b4ec36"
   stop-opacity="1"
   id="stop18" />
			<stop
   offset="0.52"
   stop-color="#b1eb36"
   stop-opacity="1"
   id="stop20" />
			<stop
   offset="0.71"
   stop-color="#a9e735"
   stop-opacity="1"
   id="stop22" />
			<stop
   offset="0.86"
   stop-color="#9ae034"
   stop-opacity="1"
   id="stop24" />
			<stop
   offset="1"
   stop-color="#86d633"
   stop-opacity="1"
   id="stop26" />
		</linearGradient>
	</defs>
	<g
   id="g78"
   transform="translate(-33.999571,-33.999597)">
		<title
   id="title30">Page-1</title>
		<g
   id="group6607-1"
   transform="translate(34.0231,-34.0157)">
			<title
   id="title32">Cognitive Services Bot Profile</title>
			<g
   id="group6608-2">
				<title
   id="title34">Sheet.6608</title>
				<g
   id="shape6609-3"
   transform="translate(0,-0.600278)">
					<title
   id="title36">Sheet.6609</title>
					<path
   d="m 46.47,124.71 a 4.50986,4.50208 -180 0 0 4.54,-4.4 3.34064,3.33488 -180 0 0 0,-0.57 C 49.24,105.5 40.99,93.93 25.56,93.93 10.12,93.93 1.57,103.63 0,119.67 a 4.57667,4.56878 -180 0 0 4.08,5.01 h 42.39 z"
   class="st1"
   id="path38"
   inkscape:connector-curvature="0"
   style="fill:url(#grad0-6);stroke:none;stroke-width:34;stroke-linecap:butt" />
				</g>
				<g
   id="shape6610-7"
   transform="translate(17.7388,-11.1385)">
					<title
   id="title41">Sheet.6610</title>
					<path
   d="M 7.75,107.5 A 14.8658,14.8402 0 0 1 0,105.33 l 7.75,19.38 7.62,-19.14 a 14.465,14.44 0 0 1 -7.62,1.93 z"
   class="st2"
   id="path43"
   inkscape:connector-curvature="0"
   style="fill:#ffffff;fill-opacity:0.8;stroke:none;stroke-width:34;stroke-linecap:butt" />
				</g>
				<g
   id="shape6611-9"
   transform="translate(11.2245,-28.1464)">
					<title
   id="title46">Sheet.6611</title>
					<ellipse
   cx="14.2979"
   cy="110.435"
   rx="14.2979"
   ry="14.2733"
   class="st3"
   id="ellipse48"
   style="fill:url(#grad0-12);stroke:none;stroke-width:34;stroke-linecap:butt" />
				</g>
				<g
   id="shape6612-13"
   transform="rotate(31.8,27.920654,176.95641)">
					<title
   id="title51">Sheet.6612</title>
					<rect
   x="0"
   y="101.998"
   width="6.8817101"
   height="22.710501"
   class="st4"
   id="rect53"
   style="fill:url(#grad0-16);stroke:none;stroke-width:34;stroke-linecap:butt" />
				</g>
				<g
   id="shape6613-17"
   transform="translate(42.7568,-21.2932)">
					<title
   id="title56">Sheet.6613</title>
					<path
   d="m 1.51,118.66 5.83,3.65 -1.51,2.4 L 0,121.06 Z"
   class="st5"
   id="path58"
   inkscape:connector-curvature="0"
   style="fill:#0078d4;stroke:none;stroke-width:34;stroke-linecap:butt" />
				</g>
				<g
   id="shape6614-19"
   transform="translate(30.9343)">
					<title
   id="title61">Sheet.6614</title>
					<path
   d="m 0,119.91 0.23,4.8 4.35,-1.9 a 3.34064,3.33488 -180 0 0 1.7,-1.44 L 0.57,117.71 A 3.90855,3.90181 -180 0 0 0,119.91 Z"
   class="st6"
   id="path63"
   inkscape:connector-curvature="0"
   style="fill:#f2f2f2;stroke:none;stroke-width:34;stroke-linecap:butt" />
				</g>
				<g
   id="shape6615-21"
   transform="translate(44.4472,-23.6943)">
					<title
   id="title66">Sheet.6615</title>
					<path
   d="M 4.55,119.67 5.09,120 a 3.11347,3.10811 0 0 1 1,4.28 L 5.82,124.71 0,121.08 0.27,120.66 a 3.11347,3.10811 0 0 1 4.28,-0.99 z"
   class="st7"
   id="path68"
   inkscape:connector-curvature="0"
   style="fill:#5ea0ef;stroke:none;stroke-width:34;stroke-linecap:butt" />
				</g>
				<g
   id="shape6616-23"
   transform="translate(31.0345)">
					<title
   id="title71">Sheet.6616</title>
					<path
   d="m 0,122.14 2.51,1.57 -2.38,1 z"
   class="st5"
   id="path73"
   inkscape:connector-curvature="0"
   style="fill:#0078d4;stroke:none;stroke-width:34;stroke-linecap:butt" />
				</g>
			</g>
		</g>
	</g>
</svg>

<?xml version="1.0" encoding="UTF-8" standalone="no"?>
<!DOCTYPE svg PUBLIC "-//W3C//DTD SVG 1.1//EN" "http://www.w3.org/Graphics/SVG/1.1/DTD/svg11.dtd">
<!-- Generated by Microsoft Visio, SVG Export Cognitive Services Bot Profile.svg Page-1 -->
<svg xmlns="http://www.w3.org/2000/svg" xmlns:xlink="http://www.w3.org/1999/xlink" xmlns:ev="http://www.w3.org/2001/xml-events"
		width="1.65343in" height="1.73206in" viewBox="0 0 119.047 124.709" xml:space="preserve" color-interpolation-filters="sRGB"
		class="st8">
	<style type="text/css">
	<![CDATA[
		.st1 {fill:url(#grad0-6);stroke:none;stroke-linecap:butt;stroke-width:34}
		.st2 {fill:#ffffff;fill-opacity:0.8;stroke:none;stroke-linecap:butt;stroke-width:34}
		.st3 {fill:url(#grad0-12);stroke:none;stroke-linecap:butt;stroke-width:34}
		.st4 {fill:url(#grad0-16);stroke:none;stroke-linecap:butt;stroke-width:34}
		.st5 {fill:#0078d4;stroke:none;stroke-linecap:butt;stroke-width:34}
		.st6 {fill:#f2f2f2;stroke:none;stroke-linecap:butt;stroke-width:34}
		.st7 {fill:#5ea0ef;stroke:none;stroke-linecap:butt;stroke-width:34}
		.st8 {fill:none;fill-rule:evenodd;font-size:12px;overflow:visible;stroke-linecap:square;stroke-miterlimit:3}
	]]>
	</style>

	<defs id="Patterns_And_Gradients">
		<linearGradient id="grad0-6" x1="0" y1="0" x2="1" y2="0" gradientTransform="rotate(90 0.5 0.5)">
			<stop offset="0.22" stop-color="#32d4f5" stop-opacity="1"/>
			<stop offset="0.47" stop-color="#31d1f3" stop-opacity="1"/>
			<stop offset="1" stop-color="#198ab3" stop-opacity="1"/>
		</linearGradient>
		<linearGradient id="grad0-12" x1="0" y1="0" x2="1" y2="0" gradientTransform="rotate(85.430035767581 0.5 0.5)">
			<stop offset="0.22" stop-color="#32d4f5" stop-opacity="1"/>
			<stop offset="0.47" stop-color="#31d1f3" stop-opacity="1"/>
			<stop offset="1" stop-color="#198ab3" stop-opacity="1"/>
		</linearGradient>
		<linearGradient id="grad0-16" x1="0" y1="0" x2="1" y2="0" gradientTransform="rotate(-200.3409188796 0.5 0.5)">
			<stop offset="0.22" stop-color="#b4ec36" stop-opacity="1"/>
			<stop offset="0.52" stop-color="#b1eb36" stop-opacity="1"/>
			<stop offset="0.71" stop-color="#a9e735" stop-opacity="1"/>
			<stop offset="0.86" stop-color="#9ae034" stop-opacity="1"/>
			<stop offset="1" stop-color="#86d633" stop-opacity="1"/>
		</linearGradient>
	</defs>
	<g>
		<title>Page-1</title>
		<g id="group6439-1" transform="translate(34.0231,-34.0157)">
			<title>Cognitive Services Bot Profile</title>
			<g id="group6440-2">
				<title>Sheet.6440</title>
				<g id="shape6441-3" transform="translate(0,-0.600278)">
					<title>Sheet.6441</title>
					<path d="M46.47 124.71 A4.50986 4.50208 -180 0 0 51.01 120.31 A3.34064 3.33488 -180 0 0 51.01 119.74 C49.24 105.5
								 40.99 93.93 25.56 93.93 C10.12 93.93 1.57 103.63 0 119.67 A4.57667 4.56878 -180 0 0 4.08 124.68
								 L46.47 124.68 L46.47 124.71 Z" class="st1"/>
				</g>
				<g id="shape6442-7" transform="translate(17.7388,-11.1385)">
					<title>Sheet.6442</title>
					<path d="M7.75 107.5 A14.8658 14.8402 0 0 1 0 105.33 L7.75 124.71 L15.37 105.57 A14.465 14.44 0 0 1 7.75 107.5
								 Z" class="st2"/>
				</g>
				<g id="shape6443-9" transform="translate(11.2245,-28.1464)">
					<title>Sheet.6443</title>
					<ellipse cx="14.2979" cy="110.435" rx="14.2979" ry="14.2733" class="st3"/>
				</g>
				<g id="shape6444-13" transform="translate(97.4393,11.8495) rotate(31.8)">
					<title>Sheet.6444</title>
					<rect x="0" y="101.998" width="6.88171" height="22.7105" class="st4"/>
				</g>
				<g id="shape6445-17" transform="translate(42.7568,-21.2932)">
					<title>Sheet.6445</title>
					<path d="M1.51 118.66 L7.34 122.31 L5.83 124.71 L0 121.06 L1.51 118.66 Z" class="st5"/>
				</g>
				<g id="shape6446-19" transform="translate(30.9343,1.13687E-13)">
					<title>Sheet.6446</title>
					<path d="M0 119.91 L0.23 124.71 L4.58 122.81 A3.34064 3.33488 -180 0 0 6.28 121.37 L0.57 117.71 A3.90855 3.90181
								 -180 0 0 -0 119.91 Z" class="st6"/>
				</g>
				<g id="shape6447-21" transform="translate(44.4472,-23.6943)">
					<title>Sheet.6447</title>
					<path d="M4.55 119.67 L5.09 120 A3.11347 3.10811 0 0 1 6.09 124.28 L5.82 124.71 L0 121.08 L0.27 120.66 A3.11347
								 3.10811 0 0 1 4.55 119.67 L4.55 119.67 Z" class="st7"/>
				</g>
				<g id="shape6448-23" transform="translate(31.0345,2.84217E-14)">
					<title>Sheet.6448</title>
					<path d="M0 122.14 L2.51 123.71 L0.13 124.71 L0 122.14 Z" class="st5"/>
				</g>
			</g>
		</g>
	</g>
</svg>
